X:1
T:G. B. Nevin
T:Nevin
%%score 1 { ( 2 5 ) | ( 3 4 ) }
L:1/8
M:4/4
K:C
V:1 treble nm="Voice" snm="Vo."
V:2 treble nm="Piano" snm="Pno."
V:5 treble 
V:3 bass 
V:4 bass 
V:1
 c2 | B2 A2 F2 A2 | G6 F2 | E2 (DC) D2 G2 | G6 c2 | B2 A2 F2 A2 | G6 A2 | B2 (AG) ^F2 B2 | E6 z2 | %9
 d4 A2 B2 | (c4 G4) | B4 A2 F2 | E6 G2 | C2 (DE) F2 G2 | A2 B2 c2 d2 | e4 d4 | c6 | c4 c4 |] %18
V:2
 [EGc]2 | [DFB]2 [CFA]2 [DF]2 [DFA]2 | [CG]6 [CF]2 | [CE]2 [B,D]C [B,D]2 [B,FG]2 | %4
 [CEG]2 [B,G]2 [CG]2 [EGc]2 | [DFB]2 [CFA]2 [B,F]2 [B,DFA]2 | [CG]6 A2 | B2 AG ^F2 B2 | %8
 E2 [Ee-]2 [Ee]2 [Ee]2 | [FBd]4 [B,FA]2 [DFB]2 | [Ec]4 [CG]4 | [DFB]4 [B,FA]2 [B,F]2 | [CE]6 G2 | %13
 C2 DE F2 [EG]2 | [^DA]2 [=DGB]2 [CGc]2 [^Fcd]2 | [Gce]4 [FGd]4 | [EGc]6 | c4 c4 |] %18
V:3
 [C,G,]2 | G,4- G,4 | G,6 A,2 | G,2 F,E, F,2 D,2 | C,2 D,2 E,2 C,2 | G,4- G,4- | G,6 ^F,2 | %7
 G,2 CB, A,2 A,2 | G,6 z2 | G,4- G,4- | G,4- G,4- | G,4- G,4- | G,6 G,2 | C2 B,C C2 C2 | %14
 C2 G,2 G,2 C2 | (C4 G,4-) | G,6 | A,4 G,4 |] %18
V:4
 x2 | G,4 G,,2 G,,2 | C,6 F,2 | G,2 G,,2 G,,4 | x8 | G,4 G,,2 G,,2 | C,6 C,2 | B,,4 B,,4 | E,6 z2 | %9
 G,4 G,,2 G,,2 | C,4 E,4 | D,4 G,,2 G,,2 | C,6 G,2 | C,2 A,_B, A,2 G,2 | ^F,2 =F,2 E,2 A,2 | %15
 G,4 G,,4 | C,6 | F,4 C,4 |] %18
V:5
 x2 | x8 | F2 ED E2 z2 | x8 | x8 | x8 | F2 ED E2 E2 | E2 E2 E2 [^D^F]2 | z8 | x8 | x8 | x8 | x8 | %13
 x8 | x8 | (G2 c2) F2 B2 | x6 | F4 E4 |] %18

